X:1
T:The Lisheen
R:slide
M:12/8
L:1/8
K:G
|:~B2B BAB G2B A2G|~B2B BAG A2B c2d|
|~B2B BAB GED GBd|1 ~g2e dBG A2B c2d:|2 ~g2e dBG A2B cBA|]
|:~g2g dBd ege dBd|~g2g aga bgb afd|
|~g2g dBd ege dBd|1 ~g2g aga bgf gba:|2 ~g2g aga bgf ged|]